contributed-vectors/olx.svg

<svg xmlns="http://www.w3.org/2000/svg" width="192" height="192" fill="none"><g fill-rule="evenodd" clip-path="url(#a)" clip-rule="evenodd"><path fill="#96DFD3" d="M30 19h133c5.5 0 10 4.5 10 10v133c0 5.5-4.5 10-10 10H30c-5.5 0-10-4.5-10-10V29c0-5.5 4.5-10 10-10Z"/><path fill="#56595B" d="M107.9 116.4H98V74.6h9.9v41.8ZM94.4 95.6c0 9.5-7.7 17.2-17.2 17.2S60 105 60 95.6c0-9.4 7.7-17.2 17.2-17.2 9.5-.1 17.2 7.6 17.2 17.2Zm-12 0c0-2.9-2.3-5.2-5.2-5.2-2.9 0-5.2 2.3-5.2 5.2 0 2.9 2.3 5.2 5.2 5.2 2.9 0 5.2-2.4 5.2-5.2ZM133 85.1h-6.6l-3.9 3.9-3.9-3.9H112v6.7l3.8 3.8-3.8 3.8v6.6h6.7l3.8-3.8 3.8 3.8h6.7v-6.6l-3.8-3.8 3.8-3.8v-6.7Z"/></g><defs><clipPath id="a"><path fill="#fff" d="M0 0h192v192H0z"/></clipPath></defs></svg>

<svg width="192" height="192" viewBox="0 0 192 192" fill="none" xmlns="http://www.w3.org/2000/svg">
<g clip-path="url(#clip0)">
<path fill-rule="evenodd" clip-rule="evenodd" d="M30 19H163C168.5 19 173 23.5 173 29V162C173 167.5 168.5 172 163 172H30C24.5 172 20 167.5 20 162V29C20 23.5 24.5 19 30 19Z" fill="#96DFD3"/>
<path fill-rule="evenodd" clip-rule="evenodd" d="M107.9 116.4H98V74.6H107.9V116.4ZM94.4 95.6C94.4 105.1 86.7 112.8 77.2 112.8C67.7 112.8 60 105 60 95.6C60 86.2 67.7 78.4 77.2 78.4C86.7 78.3 94.4 86 94.4 95.6ZM82.4 95.6C82.4 92.7 80.1 90.4 77.2 90.4C74.3 90.4 72 92.7 72 95.6C72 98.5 74.3 100.8 77.2 100.8C80.1 100.8 82.4 98.4 82.4 95.6ZM133 85.1H126.4L122.5 89L118.6 85.1H112V91.8L115.8 95.6L112 99.4V106H118.7L122.5 102.2L126.3 106H133V99.4L129.2 95.6L133 91.8V85.1Z" fill="#56595B"/>
</g>
<defs>
<clipPath id="clip0">
<rect width="192" height="192" fill="white"/>
</clipPath>
</defs>
</svg>
